!!!OTL: 520. Ernstes Liebeslied.
!!!ARE: Europa, Mitteleuropa, Deutschland
!!!SCT: E0520
!!!TXL: @@DE
!!!YEM: Copyright 1995, estate of Helmut Schaffrath.
**kern	**text
*ICvox	*
*M3/4	*
*k[]	*
*C:	*
!LO:TX:a:t=Etwas langsam.	!
!LO:TX:a:t=Mel. in v. Seckendorf's Mſpt. vor 1808. Text in deſſen Muſenalm. 1808, S. 45.	!
{8g	Es
8cc	iſt
8cc	für-
=1	=1
4.cc	-wahr
8ee	kein
8dd	Kre-
8cc	-a-
=2	=2
4b	-tur,
8r}	.
{8g	die
8cc	nicht
8cc	ʒur
=3	=3
4.cc	Lieb
8ee	er-
8dd	-ſchaf-
8b	-fen
=4	=4
4cc	wär.
4r}	.
{8e	Weil
8g	Gott
=5	=5
4.g	ja
8g	die
8a	Lieb
8g	er-
=6	=6
4g	-ſchaf-
4e}	-fen,
{8e	wer
8g	kann
=7	=7
4.g	es
8g	denn
8a	an-
8g	-ders
=8	=8
4g	ma-
4e}	-chen?
{8cc	Lie-
8cc	-ben
=9	=9
4.cc	treu
8ee	und
8dd	fort
8cc	in
=10	=10
4b	Ehr'n,
8r}	.
{8e	es
8g	iſt
8g	kein
=11	=11
4.cc	Menſch
8ee	der
8dd	mirs
8b	kann
=12	=12
4cc	wehr'n.
8r}	.
==	==
!!!AGN: Liebes - Lied
!!!ONB: ESAC (Essen Associative Code) Database: ERK1
!!!AMT: simple triple
!!!AIN: vox
!!!EED: Helmut Schaffrath
!!!EEV: 1.0
!!!GTL: Liebeslieder [Neuere (aus dem 18. bis 19. Jahrh.) - Liebeslust]
!!!URL-scan: https://rosdok.uni-rostock.de/mcrviewer/recordIdentifier/rosdok_ppn745177662/iview2/phys_0345.iview2?x=-250.1417780126858&y=1347.4733070423827&scale=0.5392104374602399&rotation=0&layout=singlePageLayout
!!!ENC: Anna Maria Matuszewska
!!!EEV: 2024/10/12
*-	*-
